images/1148.svg

<?xml version="1.0" encoding="UTF-8"?>
<svg xmlns="http://www.w3.org/2000/svg" xmlns:xlink="http://www.w3.org/1999/xlink" width="300pt" height="300pt" viewBox="0 0 300 300" version="1.1">
<defs>
<g>
<symbol overflow="visible" id="glyph0-0">
<path style="stroke:none;" d="M 0.75 2.65625 L 0.75 -10.578125 L 8.25 -10.578125 L 8.25 2.65625 Z M 1.59375 1.8125 L 7.40625 1.8125 L 7.40625 -9.734375 L 1.59375 -9.734375 Z M 1.59375 1.8125 "/>
</symbol>
<symbol overflow="visible" id="glyph0-1">
<path style="stroke:none;" d="M 1.46875 -10.9375 L 3.46875 -10.9375 L 8.3125 -1.78125 L 8.3125 -10.9375 L 9.75 -10.9375 L 9.75 0 L 7.75 0 L 2.90625 -9.140625 L 2.90625 0 L 1.46875 0 Z M 1.46875 -10.9375 "/>
</symbol>
<symbol overflow="visible" id="glyph0-2">
<path style="stroke:none;" d="M 1.46875 -10.9375 L 2.953125 -10.9375 L 2.953125 -6.453125 L 8.328125 -6.453125 L 8.328125 -10.9375 L 9.8125 -10.9375 L 9.8125 0 L 8.328125 0 L 8.328125 -5.203125 L 2.953125 -5.203125 L 2.953125 0 L 1.46875 0 Z M 1.46875 -10.9375 "/>
</symbol>
<symbol overflow="visible" id="glyph0-3">
<path style="stroke:none;" d="M 5.90625 -9.9375 C 4.832031 -9.9375 3.976562 -9.535156 3.34375 -8.734375 C 2.71875 -7.929688 2.40625 -6.835938 2.40625 -5.453125 C 2.40625 -4.078125 2.71875 -2.988281 3.34375 -2.1875 C 3.976562 -1.382812 4.832031 -0.984375 5.90625 -0.984375 C 6.976562 -0.984375 7.828125 -1.382812 8.453125 -2.1875 C 9.085938 -2.988281 9.40625 -4.078125 9.40625 -5.453125 C 9.40625 -6.835938 9.085938 -7.929688 8.453125 -8.734375 C 7.828125 -9.535156 6.976562 -9.9375 5.90625 -9.9375 Z M 5.90625 -11.140625 C 7.4375 -11.140625 8.660156 -10.625 9.578125 -9.59375 C 10.503906 -8.5625 10.96875 -7.179688 10.96875 -5.453125 C 10.96875 -3.734375 10.503906 -2.359375 9.578125 -1.328125 C 8.660156 -0.296875 7.4375 0.21875 5.90625 0.21875 C 4.375 0.21875 3.144531 -0.289062 2.21875 -1.3125 C 1.300781 -2.34375 0.84375 -3.722656 0.84375 -5.453125 C 0.84375 -7.179688 1.300781 -8.5625 2.21875 -9.59375 C 3.144531 -10.625 4.375 -11.140625 5.90625 -11.140625 Z M 5.90625 -11.140625 "/>
</symbol>
<symbol overflow="visible" id="glyph1-0">
<path style="stroke:none;" d="M 0.59375 2.125 L 0.59375 -8.46875 L 6.59375 -8.46875 L 6.59375 2.125 Z M 1.265625 1.453125 L 5.9375 1.453125 L 5.9375 -7.78125 L 1.265625 -7.78125 Z M 1.265625 1.453125 "/>
</symbol>
<symbol overflow="visible" id="glyph1-1">
<path style="stroke:none;" d="M 2.296875 -1 L 6.4375 -1 L 6.4375 0 L 0.875 0 L 0.875 -1 C 1.320312 -1.457031 1.929688 -2.078125 2.703125 -2.859375 C 3.484375 -3.648438 3.972656 -4.160156 4.171875 -4.390625 C 4.554688 -4.804688 4.820312 -5.160156 4.96875 -5.453125 C 5.125 -5.753906 5.203125 -6.046875 5.203125 -6.328125 C 5.203125 -6.796875 5.035156 -7.175781 4.703125 -7.46875 C 4.378906 -7.757812 3.957031 -7.90625 3.4375 -7.90625 C 3.0625 -7.90625 2.664062 -7.84375 2.25 -7.71875 C 1.84375 -7.59375 1.40625 -7.394531 0.9375 -7.125 L 0.9375 -8.328125 C 1.414062 -8.515625 1.859375 -8.65625 2.265625 -8.75 C 2.679688 -8.851562 3.0625 -8.90625 3.40625 -8.90625 C 4.3125 -8.90625 5.035156 -8.675781 5.578125 -8.21875 C 6.117188 -7.769531 6.390625 -7.164062 6.390625 -6.40625 C 6.390625 -6.050781 6.320312 -5.710938 6.1875 -5.390625 C 6.050781 -5.066406 5.804688 -4.6875 5.453125 -4.25 C 5.347656 -4.132812 5.035156 -3.804688 4.515625 -3.265625 C 3.992188 -2.722656 3.253906 -1.96875 2.296875 -1 Z M 2.296875 -1 "/>
</symbol>
</g>
</defs>
<g id="surface38389">
<rect x="0" y="0" width="300" height="300" style="fill:rgb(100%,100%,100%);fill-opacity:1;stroke:none;"/>
<path style="fill:none;stroke-width:1.2;stroke-linecap:butt;stroke-linejoin:miter;stroke:rgb(0%,0%,0%);stroke-opacity:1;stroke-miterlimit:10;" d="M 58.375 197.097656 L 35.25 169.398438 "/>
<path style="fill:none;stroke-width:1.2;stroke-linecap:butt;stroke-linejoin:miter;stroke:rgb(0%,0%,0%);stroke-opacity:1;stroke-miterlimit:10;" d="M 62.578125 188.886719 L 44.078125 166.726562 "/>
<path style="fill:none;stroke-width:1.2;stroke-linecap:butt;stroke-linejoin:miter;stroke:rgb(0%,0%,0%);stroke-opacity:1;stroke-miterlimit:10;" d="M 93.925781 190.921875 L 58.375 197.097656 "/>
<path style="fill:none;stroke-width:1.2;stroke-linecap:butt;stroke-linejoin:miter;stroke:rgb(0%,0%,0%);stroke-opacity:1;stroke-miterlimit:10;" d="M 35.25 169.398438 L 47.675781 135.519531 "/>
<path style="fill:none;stroke-width:1.2;stroke-linecap:butt;stroke-linejoin:miter;stroke:rgb(0%,0%,0%);stroke-opacity:1;stroke-miterlimit:10;" d="M 47.675781 135.519531 L 83.226562 129.34375 "/>
<path style="fill:none;stroke-width:1.2;stroke-linecap:butt;stroke-linejoin:miter;stroke:rgb(0%,0%,0%);stroke-opacity:1;stroke-miterlimit:10;" d="M 52.683594 143.269531 L 81.125 138.328125 "/>
<path style="fill:none;stroke-width:1.2;stroke-linecap:butt;stroke-linejoin:miter;stroke:rgb(0%,0%,0%);stroke-opacity:1;stroke-miterlimit:10;" d="M 83.226562 129.34375 L 106.351562 157.042969 "/>
<path style="fill:none;stroke-width:1.2;stroke-linecap:butt;stroke-linejoin:miter;stroke:rgb(0%,0%,100%);stroke-opacity:1;stroke-miterlimit:10;" d="M 102.425781 98.792969 L 92.828125 114.070312 "/>
<path style="fill:none;stroke-width:1.2;stroke-linecap:butt;stroke-linejoin:miter;stroke:rgb(0%,0%,0%);stroke-opacity:1;stroke-miterlimit:10;" d="M 92.828125 114.070312 L 83.226562 129.34375 "/>
<path style="fill:none;stroke-width:1.2;stroke-linecap:butt;stroke-linejoin:miter;stroke:rgb(0%,0%,0%);stroke-opacity:1;stroke-miterlimit:10;" d="M 106.351562 157.042969 L 93.925781 190.921875 "/>
<path style="fill:none;stroke-width:1.2;stroke-linecap:butt;stroke-linejoin:miter;stroke:rgb(0%,0%,0%);stroke-opacity:1;stroke-miterlimit:10;" d="M 97.136719 157.507812 L 87.195312 184.609375 "/>
<path style="fill:none;stroke-width:1.2;stroke-linecap:butt;stroke-linejoin:miter;stroke:rgb(0%,0%,0%);stroke-opacity:1;stroke-miterlimit:10;" d="M 106.351562 157.042969 L 139.839844 143.613281 "/>
<path style="fill:none;stroke-width:1.2;stroke-linecap:butt;stroke-linejoin:miter;stroke:rgb(0%,0%,0%);stroke-opacity:1;stroke-miterlimit:10;" d="M 139.839844 143.613281 L 137.414062 107.609375 "/>
<path style="fill:none;stroke-width:1.2;stroke-linecap:butt;stroke-linejoin:miter;stroke:rgb(0%,0%,0%);stroke-opacity:1;stroke-miterlimit:10;" d="M 131.128906 140.582031 L 129.1875 111.78125 "/>
<path style="fill:none;stroke-width:1.2;stroke-linecap:butt;stroke-linejoin:miter;stroke:rgb(0%,0%,0%);stroke-opacity:1;stroke-miterlimit:10;" d="M 139.839844 143.613281 L 170.394531 162.808594 "/>
<path style="fill:none;stroke-width:1.2;stroke-linecap:butt;stroke-linejoin:miter;stroke:rgb(0%,0%,0%);stroke-opacity:1;stroke-miterlimit:10;" d="M 137.414062 107.609375 L 119.921875 103.203125 "/>
<path style="fill:none;stroke-width:1.2;stroke-linecap:butt;stroke-linejoin:miter;stroke:rgb(0%,0%,100%);stroke-opacity:1;stroke-miterlimit:10;" d="M 119.921875 103.203125 L 102.425781 98.792969 "/>
<path style=" stroke:none;fill-rule:nonzero;fill:rgb(100%,100%,100%);fill-opacity:1;" d="M 91.425781 89.792969 L 114.425781 89.792969 L 114.425781 107.792969 L 91.425781 107.792969 Z M 91.425781 89.792969 "/>
<g style="fill:rgb(0%,0%,100%);fill-opacity:1;">
  <use xlink:href="#glyph0-1" x="91.425781" y="103.407227"/>
  <use xlink:href="#glyph0-2" x="102.401367" y="103.407227"/>
</g>
<path style="fill:none;stroke-width:1.2;stroke-linecap:butt;stroke-linejoin:miter;stroke:rgb(0%,0%,0%);stroke-opacity:1;stroke-miterlimit:10;" d="M 170.394531 162.808594 L 202.296875 145.949219 "/>
<path style="fill:none;stroke-width:1.2;stroke-linecap:butt;stroke-linejoin:miter;stroke:rgb(0%,0%,0%);stroke-opacity:1;stroke-miterlimit:10;" d="M 202.296875 145.949219 L 232.847656 165.148438 "/>
<path style="fill:none;stroke-width:1.2;stroke-linecap:butt;stroke-linejoin:miter;stroke:rgb(0%,0%,0%);stroke-opacity:1;stroke-miterlimit:10;" d="M 202.296875 145.949219 L 202.972656 127.921875 "/>
<path style="fill:none;stroke-width:1.2;stroke-linecap:butt;stroke-linejoin:miter;stroke:rgb(0%,0%,100%);stroke-opacity:1;stroke-miterlimit:10;" d="M 202.972656 127.921875 L 203.644531 109.894531 "/>
<path style="fill:none;stroke-width:1.2;stroke-linecap:butt;stroke-linejoin:miter;stroke:rgb(0%,0%,0%);stroke-opacity:1;stroke-miterlimit:10;" d="M 228.605469 164.992188 L 227.929688 183.019531 "/>
<path style="fill:none;stroke-width:1.2;stroke-linecap:butt;stroke-linejoin:miter;stroke:rgb(100%,0%,0%);stroke-opacity:1;stroke-miterlimit:10;" d="M 227.929688 183.019531 L 227.253906 201.046875 "/>
<path style="fill:none;stroke-width:1.2;stroke-linecap:butt;stroke-linejoin:miter;stroke:rgb(0%,0%,0%);stroke-opacity:1;stroke-miterlimit:10;" d="M 237.089844 165.308594 L 236.414062 183.335938 "/>
<path style="fill:none;stroke-width:1.2;stroke-linecap:butt;stroke-linejoin:miter;stroke:rgb(100%,0%,0%);stroke-opacity:1;stroke-miterlimit:10;" d="M 236.414062 183.335938 L 235.738281 201.367188 "/>
<path style="fill:none;stroke-width:1.2;stroke-linecap:butt;stroke-linejoin:miter;stroke:rgb(0%,0%,0%);stroke-opacity:1;stroke-miterlimit:10;" d="M 232.847656 165.148438 L 248.800781 156.71875 "/>
<path style="fill:none;stroke-width:1.2;stroke-linecap:butt;stroke-linejoin:miter;stroke:rgb(100%,0%,0%);stroke-opacity:1;stroke-miterlimit:10;" d="M 248.800781 156.71875 L 264.75 148.289062 "/>
<path style=" stroke:none;fill-rule:nonzero;fill:rgb(100%,100%,100%);fill-opacity:1;" d="M 225.496094 192.207031 L 237.496094 192.207031 L 237.496094 210.207031 L 225.496094 210.207031 Z M 225.496094 192.207031 "/>
<g style="fill:rgb(100%,0%,0%);fill-opacity:1;">
  <use xlink:href="#glyph0-3" x="225.496094" y="205.821289"/>
</g>
<path style=" stroke:none;fill-rule:nonzero;fill:rgb(100%,100%,100%);fill-opacity:1;" d="M 253.75 139.289062 L 276.75 139.289062 L 276.75 157.289062 L 253.75 157.289062 Z M 253.75 139.289062 "/>
<g style="fill:rgb(100%,0%,0%);fill-opacity:1;">
  <use xlink:href="#glyph0-3" x="253.75" y="152.90332"/>
  <use xlink:href="#glyph0-2" x="265.298828" y="152.90332"/>
</g>
<path style=" stroke:none;fill-rule:nonzero;fill:rgb(100%,100%,100%);fill-opacity:1;" d="M 188.644531 98.894531 L 218.644531 98.894531 L 218.644531 120.894531 L 188.644531 120.894531 Z M 188.644531 98.894531 "/>
<g style="fill:rgb(0%,0%,100%);fill-opacity:1;">
  <use xlink:href="#glyph0-1" x="188.644531" y="112.508789"/>
  <use xlink:href="#glyph0-2" x="199.620117" y="112.508789"/>
</g>
<g style="fill:rgb(0%,0%,100%);fill-opacity:1;">
  <use xlink:href="#glyph1-1" x="210.652344" y="117.391602"/>
</g>
</g>
</svg>

<svg xmlns="http://www.w3.org/2000/svg" xmlns:xlink="http://www.w3.org/1999/xlink" width="300pt" height="300pt" viewBox="0 0 300 300"><defs><symbol overflow="visible"><path d="M.75 2.656v-13.234h7.5V2.656zm.844-.844h5.812V-9.733H1.594zm0 0"/></symbol><symbol overflow="visible" id="a"><path d="M1.47-10.938h2L8.31-1.78v-9.158H9.75V0h-2L2.906-9.14V0H1.47zm0 0"/></symbol><symbol overflow="visible" id="b"><path d="M1.47-10.938h1.483v4.485h5.375v-4.484h1.485V0H8.328v-5.203H2.953V0H1.47zm0 0"/></symbol><symbol overflow="visible" id="c"><path d="M5.906-9.938c-1.074 0-1.93.403-2.562 1.204-.625.804-.938 1.898-.938 3.28 0 1.376.313 2.466.938 3.266.633.805 1.488 1.204 2.562 1.204 1.07 0 1.922-.4 2.547-1.204.633-.8.953-1.89.953-3.265 0-1.383-.32-2.477-.953-3.28-.625-.802-1.476-1.204-2.547-1.204zm0-1.203c1.532 0 2.754.515 3.672 1.546.926 1.03 1.39 2.414 1.39 4.14 0 1.72-.464 3.095-1.39 4.126C8.66-.298 7.438.22 5.906.22c-1.53 0-2.76-.51-3.687-1.532C1.3-2.345.843-3.723.843-5.452c0-1.728.457-3.11 1.375-4.142.925-1.03 2.155-1.547 3.686-1.547zm0 0"/></symbol><symbol overflow="visible"><path d="M.594 2.125V-8.47h6V2.126zm.672-.672h4.671V-7.78h-4.67zm0 0"/></symbol><symbol overflow="visible" id="d"><path d="M2.297-1h4.14v1H.875v-1c.445-.457 1.055-1.078 1.828-1.86.78-.788 1.27-1.3 1.47-1.53.382-.415.647-.77.796-1.063.155-.3.233-.594.233-.875 0-.47-.168-.848-.5-1.14-.324-.29-.746-.438-1.266-.438-.374 0-.773.062-1.187.187-.406.126-.844.325-1.313.595v-1.203c.477-.188.922-.328 1.33-.422.413-.102.796-.156 1.14-.156.905 0 1.628.23 2.17.687.54.45.814 1.056.814 1.814 0 .355-.07.695-.202 1.015-.137.324-.383.702-.735 1.14-.105.117-.418.445-.937.984C3.992-2.723 3.254-1.97 2.296-1zm0 0"/></symbol></defs><g><path fill="#fff" d="M0 0h300v300H0z"/><path d="M58.375 197.098l-23.125-27.7M62.578 188.887l-18.5-22.16M93.926 190.922l-35.55 6.176M35.25 169.398l12.426-33.878M47.676 135.52l35.55-6.176M52.684 143.27l28.44-4.942M83.227 129.344l23.125 27.7" stroke-width="1.2" stroke="#000" stroke-miterlimit="10" fill="none"/><path d="M102.426 98.793l-9.598 15.277" stroke-width="1.2" stroke="#00f" stroke-miterlimit="10" fill="none"/><path d="M92.828 114.07l-9.6 15.274M106.352 157.043l-12.426 33.88M97.137 157.508l-9.942 27.1M106.352 157.043l33.488-13.43M139.84 143.613l-2.426-36.004M131.13 140.582l-1.942-28.8M139.84 143.613l30.555 19.196M137.414 107.61l-17.492-4.407" stroke-width="1.2" stroke="#000" stroke-miterlimit="10" fill="none"/><path d="M119.922 103.203l-17.496-4.41" stroke-width="1.2" stroke="#00f" stroke-miterlimit="10" fill="none"/><path d="M91.426 89.793h23v18h-23zm0 0" fill="#fff"/><g fill="#00f"><use xlink:href="#a" x="91.426" y="103.407"/><use xlink:href="#b" x="102.401" y="103.407"/></g><path d="M170.395 162.81l31.902-16.86M202.297 145.95l30.55 19.198M202.297 145.95l.676-18.028" stroke-width="1.2" stroke="#000" stroke-miterlimit="10" fill="none"/><path d="M202.973 127.922l.672-18.027" stroke-width="1.2" stroke="#00f" stroke-miterlimit="10" fill="none"/><path d="M228.605 164.992l-.675 18.028" stroke-width="1.2" stroke="#000" stroke-miterlimit="10" fill="none"/><path d="M227.93 183.02l-.676 18.027" stroke-width="1.2" stroke="#f00" stroke-miterlimit="10" fill="none"/><path d="M237.09 165.31l-.676 18.026" stroke-width="1.2" stroke="#000" stroke-miterlimit="10" fill="none"/><path d="M236.414 183.336l-.676 18.03" stroke-width="1.2" stroke="#f00" stroke-miterlimit="10" fill="none"/><path d="M232.848 165.148l15.953-8.43" stroke-width="1.2" stroke="#000" stroke-miterlimit="10" fill="none"/><path d="M248.8 156.72l15.95-8.43" stroke-width="1.2" stroke="#f00" stroke-miterlimit="10" fill="none"/><path d="M225.496 192.207h12v18h-12zm0 0" fill="#fff"/><use xlink:href="#c" x="225.496" y="205.821" fill="#f00"/><path d="M253.75 139.29h23v18h-23zm0 0" fill="#fff"/><g fill="#f00"><use xlink:href="#c" x="253.75" y="152.903"/><use xlink:href="#b" x="265.299" y="152.903"/></g><path d="M188.645 98.895h30v22h-30zm0 0" fill="#fff"/><g fill="#00f"><use xlink:href="#a" x="188.645" y="112.509"/><use xlink:href="#b" x="199.62" y="112.509"/></g><use xlink:href="#d" x="210.652" y="117.392" fill="#00f"/></g></svg>
